/* XPM */
static char *a6195232f55e4d2e8f2fea159d92434fzr7BL8rZ5gUBiHJv[] = {
/* columns rows colors chars-per-pixel */
"32 32 7 1 ",
"  c None",
". c black",
"X c #03A9F4",
"o c #B0BEC5",
"O c #ECEFF1",
"+ c gray96",
"@ c white",
/* pixels */
"@@@@@@@@@@@@@@@@@@@@@@@@@@@@@@@@",
"@@@@@@@@@@@@@@@@@@@@@@@@@@@@@@@@",
"@@@@@@@@@@@@@@@@@@@@@@@@@@@@@@@@",
"@@@@@......................@@@@@",
"@@@@@.OOOOOOOOOOOOOOOOOOOO.@@@@@",
"@@@@@.O..................O.@@@@@",
"@@@@@.O.oooooooooooooooo.O.@@@@@",
"@@@@@.O.oooooooooooooooo.O.@@@@@",
"@@@@@.O.oooooooooooooooo.O.@@@@@",
"@@@@@.O..................O.@@@@@",
"@@@@@.OOOOOOOOOOOOOOOOOOOO.@@@@@",
"@@@@@.OOOOOOOOOOOOOOOOOOOO.@@@@@",
"@@@@@.O...O...O...OO.....O.@@@@@",
"@@@@@.O.+.O.+.O.+.OO.+++.O.@@@@@",
"@@@@@.O...O...O...OO.....O.@@@@@",
"@@@@@.OOOOOOOOOOOOOOOOOOOO.@@@@@",
"@@@@@.O...O...O...OO.....O.@@@@@",
"@@@@@.O.+.O.+.O.+.OO.+++.O.@@@@@",
"@@@@@.O...O...O...OO.....O.@@@@@",
"@@@@@.OOOOOOOOOOOOOOOOOOOO.@@@@@",
"@@@@@.O...O...O...OO.....O.@@@@@",
"@@@@@.O.+.O.+.O.+.OO.+++.O.@@@@@",
"@@@@@.O...O...O...OO.....O.@@@@@",
"@@@@@.OOOOOOOOOOOOOOOOOOOO.@@@@@",
"@@@@@.O...O...O...OO.....O.@@@@@",
"@@@@@.O.+.O.+.O. .OO.XXX.O.@@@@@",
"@@@@@.O...O...O...OO.....O.@@@@@",
"@@@@@.OOOOOOOOOOOOOOOOOOOO.@@@@@",
"@@@@@......................@@@@@",
"@@@@@@@@@@@@@@@@@@@@@@@@@@@@@@@@",
"@@@@@@@@@@@@@@@@@@@@@@@@@@@@@@@@",
"@@@@@@@@@@@@@@@@@@@@@@@@@@@@@@@@"
};
