/* XPM */
static char *_91b861a4e624e9eb10843202ba73b5eI535auPEF3Z9Vh9n[] = {
/* columns rows colors chars-per-pixel */
"32 32 7 1 ",
"  c None",
". c black",
"X c #D50000",
"o c #2196F3",
"O c #B0BEC5",
"+ c gray88",
"@ c white",
/* pixels */
"XX@@@@@@@@@@@@@@@@@@@@@@@@@@@@XX",
"XXX@@@@@@@@@@@@@@@@@@@@@@@@@@XXX",
"@XXX@@@@@@@@@@@@@@@@@@@@@@@@XXX@",
"@@XXX......................XXX@@",
"@@@XXX++++++++++++++++++++XXX@@@",
"@@@@XXX..................XXX@@@@",
"@@@@@XXXOOOOOOOOOOOOOOOOXXX@@@@@",
"@@@@@.XXXOOOOOOOOOOOOOOXXX.@@@@@",
"@@@@@.+XXXOOOOOOOOOOOOXXX+.@@@@@",
"@@@@@.+.XXX..........XXX.+.@@@@@",
"@@@@@.+++XXX++++++++XXX+++.@@@@@",
"@@@@@.+...XXX.+...+XXX ..+.@@@@@",
"@@@@@.+.@.+XXX+.@.XXX@@@.+.@@@@@",
"@@@@@.+...+.XXX..XXX.....+.@@@@@",
"@@@@@.+++++++XXXXXX+++++++.@@@@@",
"@@@@@.+...+...XXXX++.....+.@@@@@",
"@@@@@.+.@.+.@.XXXX++.@@@.+.@@@@@",
"@@@@@.+...+..XXXXXX+.....+.@@@@@",
"@@@@@.++++++XXX++XXX++++++.@@@@@",
"@@@@@.+...+XXX+...XXX....+.@@@@@",
"@@@@@.+.@.XXX.+.@.+XXX@@.+.@@@@@",
"@@@@@.+..XXX..+...++XXX..+.@@@@@",
"@@@@@.++XXX++++++++++XXX++.@@@@@",
"@@@@@.+XXX+...+...++..XXX+.@@@@@",
"@@@@@.XXX.+.@.+.@.++.ooXXX.@@@@@",
"@@@@@XXX..+...+...++....XXX@@@@@",
"@@@@XXX++++++++++++++++++XXX@@@@",
"@@@XXX....................XXX@@@",
"@@XXX@@@@@@@@@@@@@@@@@@@@@ XXX@@",
"@XXX@@@@@@@@@@@@@@@@@@@@@@@@XXX@",
"XXX@@@@@@@@@@@@@@@@@@@@@@@@@@XXX",
"XX@@@@@@@@@@@@@@@@@@@@@@@@@@@@XX"
};
